svg/repo-pull.svg

<svg height="1024" width="1024" xmlns="http://www.w3.org/2000/svg">
  <path d="M1024 320l-192-192v128h-384v128h384v128l192-192z m-320 320h-512v-576h512v128h64s0-96 0-128-32-64-64-64-608 0-640 0-64 32-64 64 0 736 0 768 32 64 64 64 128 0 128 0v128l96-96 96 96v-128s288 0 320 0 64-32 64-64 0-384 0-384h-64v192z m0 160c0 15-15 32-32 32s-288 0-288 0v-64h-192v64s-79 0-96 0-32-16-32-32 0-96 0-96h640s0 81 0 96z m-384-544h-64v64h64v-64z m0-128h-64v64h64v-64z m0 256h-64v64h64v-64z m-64 192h64v-64h-64v64z" />
</svg>

<svg height="1024" width="1024" xmlns="http://www.w3.org/2000/svg">
  <path d="M1024 320L832 128v128H448v128h384v128L1024 320zM704 640H192V64h512v128h64V64c0-64-64-64-64-64H64C64 0 0 0 0 64v768c0 64 64 64 64 64h128v128l96-96 96 96V896h320c0 0 64-1.125 64-64V448h-64V640zM704 768c0 61.625-64 64-64 64H384v-64H192v64h-64c-64 0-64-64-64-64v-64h640V768zM320 256h-64v64h64V256zM320 128h-64v64h64V128zM320 384h-64v64h64V384zM256 576h64v-64h-64V576z" />
</svg>
